X:1
T:Figueroa, 84.84.88.84
T:Figueroa, 84.84.88.84
T:James McGranahan, 1887
T:Public Domain Courtesy of the Cyber Hymnal™
C:James McGranahan, 1887
Z:Public Domain
Z:Courtesy of the Cyber Hymnal™
%%score ( 1 2 ) ( 3 4 )
L:1/8
Q:1/4=110
M:2/2
K:G
V:1 treble 
V:2 treble 
V:3 bass 
V:4 bass 
V:1
 [DB]3 [DB] [Ec]2 [DB]2 | [CA]2 [EG]2 [DF]2 [CE]2 | [B,D]4 [DG]2 [DA]2 | [DB]8 | %4
 [DB]3 [DB] [Ec]2 [DB]2 | [CA]2 [EG]2 [DF]2 [CE]2 | [B,D]4 [DG]2 [DA]2 | [DG]8 | %8
 [Gd]3 [Gd] [Ge]2 [Gd]2 | [Dc]2 [DB]2 [DA]2 [DB]2 | [Fc]3 [Fc] [Fd]2 [Fc]2 | [GB]2 [FA]2 G2 [DA]2 | %12
 [DB]3 [DB] [Ec]2 [GB]2 | [FA]2 [EG]2 [^DF]2 E2 | [B,D]4 [DG]2 [DA]2 | [DG]8 |] %16
V:2
 x8 | x8 | x8 | x8 | x8 | x8 | x8 | x8 | x8 | x8 | x8 | x4 G2 x2 | x8 | x6 E2 | x8 | x8 |] %16
V:3
 [G,,G,]3 [G,,G,] [G,,G,]2 [G,,G,]2 | [C,G,]2 [C,G,]2 [C,G,]2 [C,G,]2 | [G,,G,]4 [B,,G,]2 [D,F,]2 | %3
 [G,,G,]8 | [G,,G,]3 [G,,G,] [G,,G,]2 [G,,G,]2 | [C,G,]2 [C,G,]2 [C,G,]2 [C,G,]2 | %6
 [D,G,]4 [D,B,]2 [D,C]2 | [G,B,]8 | [G,B,]3 [G,B,] [G,C]2 [G,B,]2 | [F,A,]2 G,2 [G,C]2 [G,B,]2 | %10
 [D,A,]3 [D,A,] [D,B,]2 [D,D]2 | [G,D]2 [D,C]2 [G,,B,]2 [D,F,]2 | G,3 G, G,2 [G,D]2 | %13
 [D,D]2 [E,B,]2 [B,,B,]2 [C,G,]2 | [D,G,]4 [D,B,]2 [D,C]2 | [G,,B,]8 |] %16
V:4
 x8 | x8 | x8 | x8 | x8 | x8 | x8 | x8 | x8 | x2 G,2 x4 | x8 | x8 | G,3 G, G,2 x2 | x8 | x8 | x8 |] %16

